X:1
T:Andy Bardeen
M:6/8
L:1/8
K:C
 C| CEG G/2 A3/2 G| GFD C2E/2-G/2| cdc| G/2 B3/2 d| c3- c z G| c2 c G2 E|\
 FGA G2 C| E G3/2 A/2 G3/2 F/2 D| C3- C2||
